icons/offers__item-1.svg

<svg width="59" height="57" viewBox="0 0 59 57" fill="none" xmlns="http://www.w3.org/2000/svg">
<path opacity="0.5" fill-rule="evenodd" clip-rule="evenodd" d="M29.5 56.4167C45.3786 56.4167 58.25 43.9184 58.25 28.5C58.25 13.0816 45.3786 0.583336 29.5 0.583336C13.6214 0.583336 0.75 13.0816 0.75 28.5C0.75 43.9184 13.6214 56.4167 29.5 56.4167ZM29.5 39.6667C32.55 39.6667 35.4751 38.4902 37.6317 36.396C39.7884 34.3019 41 31.4616 41 28.5C41 25.5384 39.7884 22.6981 37.6317 20.604C35.4751 18.5098 32.55 17.3333 29.5 17.3333C26.45 17.3333 23.5249 18.5098 21.3683 20.604C19.2116 22.6981 18 25.5384 18 28.5C18 31.4616 19.2116 34.3019 21.3683 36.396C23.5249 38.4902 26.45 39.6667 29.5 39.6667Z" fill="white"/>
</svg>

<svg xmlns="http://www.w3.org/2000/svg" width="59" height="57" fill="none"><path fill="#fff" fill-rule="evenodd" d="M29.5 56.417c15.879 0 28.75-12.499 28.75-27.917S45.379.583 29.5.583.75 13.082.75 28.5 13.621 56.417 29.5 56.417m0-16.75c3.05 0 5.975-1.177 8.132-3.271S41 31.462 41 28.5s-1.212-5.802-3.368-7.896c-2.157-2.094-5.082-3.27-8.132-3.27s-5.975 1.176-8.132 3.27S18 25.538 18 28.5s1.212 5.802 3.368 7.896c2.157 2.094 5.082 3.27 8.132 3.27" clip-rule="evenodd" opacity=".5"/></svg>
